client/public/assets/icons/standard/channel_program_history.svg

<?xml version="1.0"?><svg xmlns="http://www.w3.org/2000/svg" width="100" height="100" viewBox="0 0 100 100"><path fill="#fff" d="m30.7 48.1c1-10.9 10.2-19.4 21.2-19.4 12.6 0 22.6 10.9 21.2 23.7-1 9.2-9.7 17.9-19 18.8-6.9 0.7-13.4-1.8-17.9-6.8-0.6-0.7-1.4-1.1-2.1-0.1l-2.3 2.8c-0.5 0.6-0.1 1 0.4 1.5 5.2 5.5 12.4 8.6 20.2 8.5 14-0.2 25.7-11.2 26.6-25.2 1.2-15.8-11.4-29-27-29-14.3 0-26.1 11.1-27 25.2 0 0.3-0.1 0.7-0.1 1h-4.4c-1.3 0-1.9 1.5-1.2 2.3l7.3 8.8c0.6 0.7 1.6 0.7 2.2 0l7.3-8.8c0.8-1 0.1-2.3-1.2-2.3h-4.3l0.1-1z m21.4-10c-6.5 0-11.9 5.4-11.9 11.9s5.4 11.9 11.9 11.9 11.9-5.4 11.9-11.9-5.3-11.9-11.9-11.9z m9.5 10.7h-3.1c-0.1-2.8-0.8-5.3-1.7-7.1 2.6 1.4 4.4 4.1 4.8 7.1z m-10.6-7.8v7.8h-2.7c0.1-3.7 1.3-6.6 2.7-7.8z m0 10.2v7.8c-1.3-1.1-2.5-4.1-2.7-7.8h2.7z m2.3 7.8v-7.8h2.7c-0.1 3.7-1.3 6.6-2.7 7.8z m0-10.2v-7.8c1.3 1.1 2.5 4.1 2.7 7.8h-2.7z m-5.7-7.1c-1 1.9-1.5 4.3-1.7 7.1h-3.1c0.3-3 2.1-5.7 4.8-7.1z m-4.9 9.5h3.1c0.1 2.8 0.8 5.3 1.7 7.1-2.6-1.4-4.4-4.1-4.8-7.1z m14 7.1c1-1.9 1.5-4.3 1.7-7.1h3.1c-0.3 3-2.1 5.7-4.8 7.1z"></path></svg>

<?xml version="1.0" encoding="utf-8"?>
<!-- Generator: Adobe Illustrator 21.1.0, SVG Export Plug-In . SVG Version: 6.00 Build 0)  -->
<svg version="1.1" id="Layer_1" xmlns="http://www.w3.org/2000/svg" xmlns:xlink="http://www.w3.org/1999/xlink" x="0px" y="0px"
	 width="100px" height="100px" viewBox="0 0 100 100" enable-background="new 0 0 100 100" xml:space="preserve">
<path fill="#FFFFFF" d="M30.7,48.1c1-10.9,10.2-19.4,21.2-19.4c12.6,0,22.6,10.9,21.2,23.7c-1,9.2-9.7,17.9-19,18.8
	c-6.9,0.7-13.4-1.8-17.9-6.8c-0.6-0.7-1.4-1.1-2.1-0.1l-2.3,2.8c-0.5,0.6-0.1,1,0.4,1.5c5.2,5.5,12.4,8.6,20.2,8.5
	c14-0.2,25.7-11.2,26.6-25.2C80.2,36.1,67.6,22.9,52,22.9c-14.3,0-26.1,11.1-27,25.2c0,0.3-0.1,0.7-0.1,1h-4.4
	c-1.3,0-1.9,1.5-1.2,2.3l7.3,8.8c0.6,0.7,1.6,0.7,2.2,0l7.3-8.8c0.8-1,0.1-2.3-1.2-2.3h-4.3L30.7,48.1z"/>
<path fill="#FFFFFF" d="M52.1,38.1c-6.5,0-11.9,5.4-11.9,11.9s5.4,11.9,11.9,11.9S64,56.5,64,50S58.7,38.1,52.1,38.1z M61.6,48.8
	h-3.1c-0.1-2.8-0.8-5.3-1.7-7.1C59.4,43.1,61.2,45.8,61.6,48.8z M51,41v7.8h-2.7C48.4,45.1,49.6,42.2,51,41z M51,51.2V59
	c-1.3-1.1-2.5-4.1-2.7-7.8H51z M53.3,59v-7.8h2.7C55.9,54.9,54.7,57.8,53.3,59z M53.3,48.8V41c1.3,1.1,2.5,4.1,2.7,7.8H53.3z
	 M47.6,41.7c-1,1.9-1.5,4.3-1.7,7.1h-3.1C43.1,45.8,44.9,43.1,47.6,41.7z M42.7,51.2h3.1c0.1,2.8,0.8,5.3,1.7,7.1
	C44.9,56.9,43.1,54.2,42.7,51.2z M56.7,58.3c1-1.9,1.5-4.3,1.7-7.1h3.1C61.2,54.2,59.4,56.9,56.7,58.3z"/>
</svg>
